X:339
T:Fair Quaker of Deal
C:John Young, 1728
S:Colin Hume's website,  colinhume.com  - chords can also be printed below the stave.
Q:3/8=120
M:6/8
R:Jig
L:1/8
K:D
P:A
V:1
%%MIDI program 68       % Oboe
%%MIDI chordprog 45     % Pizzicato Strings
%%MIDI control 10 0   % Left speaker
%%MIDI gchord z2cz2c
|: "D"FED A2d | "A"c3 "G"B3 | "D/F#"ABA "A7/E"GAG | "D"F3 "A"E2E |\
"D"FED A2d | "A"c3 "Bm"d3 | "A/E"ecf "E7"B2A | "A"A6 :|
V:2 bass octave=-2
%%MIDI program 42       % Cello
%%MIDI control 10 127   % Right speaker
|: D3 F2G | A3 G3 | F3 E3 | D3 C3 |\
D3 F2G | A3 B3 | e3 E3 | A6 :|
P:B
V:1
|: "A7"cBA cBA | "D"Ld3 "-"z3 | "G"BAG BAG | "Em"Lg3 "-"z3 |\
"A7"cde ABc | "D"def "Em"efg | "D"fed "A7"eAc | "D"d6 :|
V:2
|: A2G F2E | LD3 z3 | G2F E2D | LC3 z3 |\
A2G F2E | D3 E3 | DEF GAE | D6 :|

